X: 1
T: the Engagement
C: Audrey Knuth
R: waltz
Q: "Swung"
Z: 2021 John Chambers <jc:trillian.mit.edu>
S: Tunes 'N Stuff with Audrey Knuth
S: https://drive.google.com/drive/folders/1yXGhj24P9IU-sNyqHq_582DajPWJPEqj
M: 3/4
L: 1/8
K: D
G FE | "D"F3 F EF | "Gm"G3 A _B/A/G | "D"FE FA F/E/F- |\
F4 AB | "Bm"dc F2 GA | "G"Bd e2 BG | B3 d BF | "A"A3 :|
|: G FE |\
"D"FA fd AB | "Gm"Gd g2 ag | "D"fd AB F/E/F | "A"GA E3 A |\
"Bm"B3 c d/c/A | "G"G3 A Bd | "Gm"_B3 B =cB | "A"A3 :|
_
